packages/foundations/assets/icons/functional/images/social/crown_14.svg

<svg width="14" height="14" viewBox="0 0 14 14" fill="none" xmlns="http://www.w3.org/2000/svg">
<g clip-path="url(#clip0_187_338)">
<path fill-rule="evenodd" clip-rule="evenodd" d="M10.8494 11.2C11.236 11.2 11.5494 11.5134 11.5494 11.9C11.5494 12.259 11.2638 12.6 10.8494 12.6H3.14938C2.76278 12.6 2.44938 12.2866 2.44938 11.9C2.44938 11.5411 2.74907 11.2 3.14938 11.2H10.8494ZM6.37328 1.78692C6.61767 1.29813 7.29134 1.27241 7.58092 1.70974L9.02028 4.57734L11.5111 2.9176C11.9922 2.59684 12.6727 2.97842 12.5956 3.57573C12.1633 5.54817 11.6923 7.67353 11.1827 9.95182C11.1175 10.2454 10.8733 10.4613 10.5804 10.4953L3.49938 10.5C3.19863 10.5 2.93487 10.3085 2.83818 10.0299L1.41605 3.65189C1.2849 3.06173 1.90724 2.60696 2.4213 2.87808L4.97778 4.57734L6.37328 1.78692ZM6.99938 3.66524L5.87548 5.91308C5.69974 6.26458 5.27358 6.39807 4.93271 6.22442L3.16058 5.04914L4.06078 9.09934H9.93728L10.8375 5.04914L9.13767 6.18247C8.83405 6.38489 8.36069 6.32224 8.16465 5.98503C7.7932 5.2497 7.40478 4.47644 6.99938 3.66524Z" fill="#1A1C1F"/>
</g>
<defs>
<clipPath id="clip0_187_338">
<rect width="14" height="14" fill="white"/>
</clipPath>
</defs>
</svg>

<svg xmlns="http://www.w3.org/2000/svg" width="14" height="14" fill="none"><g clip-path="url(#a)"><path fill="#1A1C1F" fill-rule="evenodd" d="M10.85 11.2a.7.7 0 1 1 0 1.4h-7.7a.7.7 0 0 1-.7-.7c0-.359.3-.7.7-.7zM6.372 1.787a.7.7 0 0 1 1.208-.077l1.44 2.867 2.49-1.66c.481-.32 1.162.061 1.085.659q-.65 2.958-1.413 6.376a.7.7 0 0 1-.603.543L3.5 10.5a.7.7 0 0 1-.662-.47L1.416 3.652a.7.7 0 0 1 1.005-.774l2.557 1.7zM7 3.665 5.875 5.913a.7.7 0 0 1-.942.311L3.16 5.05l.9 4.05h5.876l.9-4.05-1.7 1.133c-.303.203-.776.14-.972-.197q-.558-1.103-1.166-2.32" clip-rule="evenodd"/></g><defs><clipPath id="a"><path fill="#fff" d="M0 0h14v14H0z"/></clipPath></defs></svg>
